X:1
T:Avertisti faciem
T:Constantijn Huygens
T:Avertisti faciem
T:Psalmus 30:8b,9,11
C:Constantijn Huygens
%%score 1 { ( 2 3 ) | 4 }
L:1/8
Q:1/4=70
M:4/4
K:F
V:1 treble nm="Voice" snm="V"
V:2 treble nm="Organ" snm="Org."
V:3 treble 
V:4 bass 
V:1
 z2 A4 G2 | F4 E4 | z2 d4 c2 | B4 A2 B2- | B2 A2 G2 F2 | G3 G A4 | z2 c4 ^cc | d6 de | ^c2 =c4 BB | %9
w: A- ver-|tis- ti,|a- ver-|tis- ti, a-|* ver- tis- ti|fa- ci- em,|fa- ci- em|tu- am a|me, et fac- tus|
 A2 A4 GG | ^F2 FD G/A/G/=F/ E2 | z2 FC (F2 E)(D | ^C4) z4 ::[M:3/4] E4 F2 | G>G G2 z2 | G4 c2 | %16
w: sum, et fac- tus|sum con- tur- ba- * * * tus,|con- tur- ba- * tus.|_|Ad te|Do- mi- ne,|ad te|
 B>B B2 z c | (d4 c)(B | A2) A2 B2 | c3 G B2 | A2 A>A G(F |[M:4/4] E2) F4 E2 | E4 D4 :| %23
w: Do- mi- ne, cla-|ma- * bo,|_ et ad|De- um me-|um de- pre- ca- bor,|_ de- pre-|ca- bor.|
[M:3/4] z2 z2 d2 | ^c4 d2 | e>e e2 A2 |[M:4/4] d4 ^c4 | !courtesy!=c4- cGG^G | A2 AG ^F2 FE | %29
w: Au-|di- vit|Do- mi- nus, au-|di- vit|et _ mi- ser- tus|est, et mi- ser- tus est|
 !courtesy!=F4 E4 |[M:3/4] F2 F2 G2 | A>A A2 z2 | B3 c d2 | c>B A2 f2 | c3 d d(^c | d4) z2 |] %36
w: me- i,|fac- tus est|Do- mi- nus,|fac- tus est|Do- mi- nus ad-|ju- tor- me- us.|_|
[M:4/4] z2 A4 G2 | F4 E4 | z2 d4 c2 | B4 A2 B2- | B2 A2 G2 F2 | G3 G A4 | z2 c4 ^cc | d6 de | %44
w: A- ver-|tis- ti,|a- ver-|tis- ti, a-|* ver- tis- ti|fa- ci- em,|fa- ci- em|tu- am a|
 ^c2 =c4 BB | A2 A4 GG | ^F2 FD G/A/G/=F/ E2 | z2 FC (F2 E)(D | ^C4) z4 |] %49
w: me, et fac- tus|sum, et fac- tus|sum con- tur- ba- * * * tus,|con- tur- ba- * tus.|_|
V:2
 z2 [DF]4 E2 | D4 E4 | [FB]4 A4 | G4 ^F2 G2- | G2 ^F2 G4 | [C!courtesy!=E]4 [CF]4 | z2 A6 | A4 B4 | %8
 A4 G4 | [CF]4 E4 | D4 D2 E2 | [F,A,C]4 [G,=B,D]4 | [A,^CE]4 z4 ::[M:3/4] ^C4 D2 | [CE]6 | %15
 [EG]4 F2 | [DG]4 z2 | [D^FA]4 [C-G]2 | F6 | E4 G2 | F4 D2 |[M:4/4] C4 ^C4 | D2 ^C2 D4 :| %23
[M:3/4] z2 z2 [FB]2 | [EA]4 [DA]2 | A6 |[M:4/4] [DG]4 [EA-]4 | [FA]4 [CG]2 [=B,E]2 | %28
 C2 [^CE]2 D2 =B,2 | D4 ^C4 |[M:3/4] C4 [CE]2 | [CF]6 | [B,_E]3 [CF] [DF]2 | F4 [FAc]2 | E6 | %35
 ^F6 |][M:4/4] z2 [DF]4 E2 | D4 E4 | [FB]4 A4 | G4 ^F2 G2- | G2 ^F2 G4 | [C!courtesy!=E]4 [CF]4 | %42
 z2 A6 | A4 B4 | A4 G4 | [CF]4 E4 | D4 D2 E2 | [F,A,C]4 [G,=B,D]4 | [A,^CE]4 z4 |] %49
V:3
 z2 A,6- | A,8 | D8- | D8- | D4 _E4 | x8 | z2 C4 ^C2 | [DF]4 F2 E2- | E4 C2 B,2 | A,8 | A,4 G,4 | %11
 x8 | x8 ::[M:3/4] A,6 | x6 | x6 | x6 | x6 | C2 D4 | C4 D2 | D2 C2 =B,2 |[M:4/4] x8 | x8 :| %23
[M:3/4] x6 | x6 | E4 F2 |[M:4/4] x8 | x8 | A,4- A,2 G,2- | G,2 ^G,2 A,4 |[M:3/4] x6 | x6 | x6 | %33
 x6 | A,G, F,2 E,2 | D,4 z2 |][M:4/4] z2 A,6- | A,8 | D8- | D8- | D4 _E4 | x8 | z2 C4 ^C2 | %43
 [DF]4 F2 E2- | E4 C2 B,2 | A,8 | A,4 G,4 | x8 | x8 |] %49
V:4
 D,,8 | z2 D4 C2 | B,4 ^F,4 | G,4 D,4- | D,2 C,2 B,,2 A,,2 | G,,4 F,,4 | F,4 E,4 | D,4 B,,2 G,,2 | %8
 A,,2 A,2 E,4 | F,4 ^C,4 | D,4 =B,,2 C,2 | F,,6 G,,2 | A,,4 z4 ::[M:3/4] A,,4 D,2 | C,6 | C4 A,2 | %16
 G,4 D,2 | D,4 E,2 | F,2 D,4 | A,2 C2 G,2 | D,2 F,2 G,2 |[M:4/4] A,4 G,4 | A,4 D,4 :|[M:3/4] D,6 | %24
 A,4 F,2 | ^C,4 D,2 |[M:4/4] B,,4 A,,4 | A,4 E,4 | F,2 ^C,2 D,4 | D,4 A,,4 |[M:3/4] A,4 G,2 | F,6 | %32
 G,3 A, B,2 | A,4 A,,2 | A,,6 | D,4 z2 |][M:4/4] D,,8 | z2 D4 C2 | B,4 ^F,4 | G,4 D,4- | %40
 D,2 C,2 B,,2 A,,2 | G,,4 F,,4 | F,4 E,4 | D,4 B,,2 G,,2 | A,,2 A,2 E,4 | F,4 ^C,4 | %46
 D,4 =B,,2 C,2 | F,,6 G,,2 | A,,4 z4 |] %49

